svg/emoji_u1f684.svg

<svg xmlns="http://www.w3.org/2000/svg" width="128" height="128"><defs><path id="a" d="M120.97 44.09c-5.94-4.09-11.99-8.01-18.1-11.84-9.49-5.93-19.37-12.32-30.52-14.49-6.85-1.34-15.55-1.26-22.19 1.23-4.4 1.65-8.53 4.3-11.65 7.84-5.57 6.34-8.97 13.68-11.79 21.57-3.94 11.02-13.59 15.01-19.36 24.83-2.57 4.4-3.86 12.1-3.42 17.22 1.97 22.61 36 23.19 50.82 20.66 7.64-1.3 15.65-5.17 19.33-7.53 8.32-5.35 14.6-12.75 14.6-12.75l35.45-34.9v-6.9c0-3.71-3.17-4.94-3.17-4.94z"/><path id="b" d="M42.14 38.36c1.03 2.01 4.46 1.94 6.32 2.03 3.2.17 6.32.21 9.47.07 2.78-.11 4.94-.23 7.26-1.93 1.61-1.18 3.11-2.29 4.8-3.12 2.36-1.15 4.41 0 5.2 2.95.43 1.63.47 3.55.16 5.26-1.65 9.01-7.48 17.25-15.94 19.45-2.83.73-5.75.96-8.67.95-5.62-.01-12.18-.29-17.38-2.75-2.67-1.27-4.05-3.28-4.05-6.8-.01-3.73 1.43-7.53 3.15-10.73.77-1.43 1.52-3.05 2.46-4.29 1.15-1.53 2.77-3.31 4.36-4.09 2.77-1.39 2.07.73 2.77 2.79.02.07.05.14.09.21z"/></defs><path fill="#2f2f2f" stroke-width="5.08" d="M0 90.037h128v3.754H0zM0 96.406h128v3.754H0z"/><g fill="none" fill-rule="evenodd" stroke="#2f2f2f" stroke-width="3.78" stroke-linecap="round" stroke-linejoin="round"><path d="M3.268 97.803l1.416-5.285M11.497 97.803l1.416-5.285M19.726 97.803l1.416-5.285M27.955 97.803l1.416-5.285M36.184 97.803l1.417-5.285M44.414 97.803l1.416-5.285M52.643 97.803l1.416-5.285M60.872 97.803l1.416-5.285M69.101 97.803l1.416-5.285"/></g><path d="M128 76.762A190.749 15.353 0 0 0 5.47 91.094 190.749 15.353 0 0 0 128 105.414V76.762z" fill-opacity=".484" stroke-width="5.08"/><path d="M97.26 90.037a8.3 8.3 0 0 1 .119 1.406 8.3 8.3 0 0 1-1.658 4.963H128v-6.369zM5.93 80.863S19.1 92.292 57.04 95.592a8.288 8.288 0 0 1-1.123-4.149 8.288 8.288 0 0 1 .193-1.757C18.94 87.832 5.93 80.863 5.93 80.863z" fill="#555"/><g fill="#2f2f2f"><circle r="6.218" cy="91.443" cx="64.205"/><circle cx="76.642" cy="91.443" r="6.218"/><circle r="6.218" cy="91.443" cx="89.079"/></g><path d="M84.889 29.955S55.856 25.13 5.929 73c-2.448 2.004-2.298 6.913 0 7.862 0 0 19.385 10.48 78.96 9.175H128V29.955z" fill="#e0e0e0"/><path d="M26.791 54.965C20.314 59.944 13.359 65.877 5.93 73c-2.448 2.005-2.299 6.914 0 7.863 0 0 3.596 1.922 12.341 4.018 4.713-.293 9.984-.469 16.002-.469H128V54.965H26.791z" fill="#00abb2" fill-rule="evenodd" stroke-width="11.847" stroke-linecap="round" stroke-linejoin="round"/><path d="M128 41.734H67.3s-13.117.233-29.331 15.032l4.428 9.365s6.974-3.884 31.242-3.921c24.27-.038 54.361-.001 54.361-.001z" fill="#2f2f2f" fill-rule="evenodd" stroke-width="3.78" stroke-linecap="round" stroke-linejoin="round"/><rect width="17.024" height="17.167" x="85.642" y="43.388" rx="5.4" ry="5.4" fill="#00cef1" fill-opacity=".681"/><rect ry="5.4" rx="5.4" y="43.388" x="103.984" height="17.167" width="17.024" fill="#00cef1" fill-opacity=".681"/><path d="M127.727 43.388c-2.992 0-5.4 2.02-5.4 4.528v8.111c0 2.509 2.408 4.528 5.4 4.528H128V43.388z" fill="#00cef1" fill-opacity=".681"/><rect ry="5.4" rx="5.4" y="43.388" x="67.3" height="17.167" width="17.024" fill="#00cef1" fill-opacity=".681"/></svg>

<?xml version="1.0" encoding="UTF-8" standalone="no"?>
<!DOCTYPE svg PUBLIC "-//W3C//DTD SVG 1.1//EN" "http://www.w3.org/Graphics/SVG/1.1/DTD/svg11.dtd">
<svg width="100%" height="100%" viewBox="0 0 128 128" version="1.1" xmlns="http://www.w3.org/2000/svg" xmlns:xlink="http://www.w3.org/1999/xlink" xml:space="preserve" xmlns:serif="http://www.serif.com/" style="fill-rule:evenodd;clip-rule:evenodd;stroke-linecap:round;stroke-linejoin:round;">
    <path d="M0,90.037L128,90.037L128,93.791L0,93.791L0,90.037ZM0,96.406L128,96.406L128,100.16L0,100.16L0,96.406Z" style="fill:rgb(47,47,47);fill-rule:nonzero;"/>
    <g>
        <path d="M3.268,97.803L4.684,92.518M11.497,97.803L12.913,92.518M19.726,97.803L21.142,92.518M27.955,97.803L29.371,92.518M36.184,97.803L37.601,92.518M44.414,97.803L45.83,92.518M52.643,97.803L54.059,92.518M60.872,97.803L62.288,92.518M69.101,97.803L70.517,92.518" style="fill:none;stroke:rgb(47,47,47);stroke-width:3.78px;"/>
    </g>
    <path d="M97.26,90.037C97.34,90.501 97.379,90.972 97.379,91.443C97.376,93.233 96.794,94.974 95.721,96.406L128,96.406L128,90.037L97.26,90.037ZM5.93,80.863C5.93,80.863 19.1,92.292 57.04,95.592C56.307,94.332 55.92,92.901 55.917,91.443C55.919,90.852 55.983,90.263 56.11,89.686C18.94,87.832 5.93,80.863 5.93,80.863Z" style="fill:rgb(85,85,85);fill-rule:nonzero;"/>
    <g>
        <circle cx="64.205" cy="91.443" r="6.218" style="fill:rgb(47,47,47);"/>
        <circle cx="76.642" cy="91.443" r="6.218" style="fill:rgb(47,47,47);"/>
        <circle cx="89.079" cy="91.443" r="6.218" style="fill:rgb(47,47,47);"/>
    </g>
    <path d="M84.889,29.955C84.889,29.955 55.856,25.13 5.929,73C3.481,75.004 3.631,79.913 5.929,80.862C5.929,80.862 25.314,91.342 84.889,90.037L128,90.037L128,29.955L84.889,29.955Z" style="fill:rgb(224,224,224);fill-rule:nonzero;"/>
    <clipPath id="_clip1">
        <path d="M84.889,29.955C84.889,29.955 55.856,25.13 5.929,73C3.481,75.004 3.631,79.913 5.929,80.862C5.929,80.862 25.314,91.342 84.889,90.037L128,90.037L128,29.955L84.889,29.955Z" clip-rule="nonzero"/>
    </clipPath>
    <g clip-path="url(#_clip1)">
        <rect x="0" y="60.555" width="152.612" height="34.544" style="fill:rgb(98,192,234);"/>
    </g>
    <g transform="matrix(1,0,0,0.442173,0,53.0485)">
        <clipPath id="_clip2">
            <path d="M84.889,-52.227C84.889,-52.227 55.856,-63.139 5.929,45.121C3.481,49.654 3.631,60.756 5.929,62.902C5.929,62.902 25.314,86.603 84.889,83.652L128,83.652L128,-52.227L84.889,-52.227Z" clip-rule="nonzero"/>
        </clipPath>
        <g clip-path="url(#_clip2)">
            <rect x="0" y="60.555" width="152.612" height="34.544" style="fill:rgb(29,140,200);"/>
        </g>
    </g>
    <path d="M128,41.734L67.3,41.734C67.3,41.734 49.155,43.588 38.877,58.387C38.877,58.387 38.964,58.814 39.09,59.432C39.625,62.05 42.114,63.793 44.757,63.399C49.754,62.882 58.971,62.232 73.639,62.21C97.909,62.172 128,62.209 128,62.209L128,41.734Z" style="fill:rgb(47,47,47);"/>
    <path d="M102.666,48.788C102.666,45.808 100.246,43.388 97.266,43.388L91.042,43.388C88.062,43.388 85.642,45.808 85.642,48.788L85.642,55.155C85.642,58.135 88.062,60.555 91.042,60.555L97.266,60.555C100.246,60.555 102.666,58.135 102.666,55.155L102.666,48.788Z" style="fill:rgb(30,157,219);fill-opacity:0.68;"/>
    <path d="M121.008,48.788C121.008,45.808 118.588,43.388 115.608,43.388L109.384,43.388C106.404,43.388 103.984,45.808 103.984,48.788L103.984,55.155C103.984,58.135 106.404,60.555 109.384,60.555L115.608,60.555C118.588,60.555 121.008,58.135 121.008,55.155L121.008,48.788Z" style="fill:rgb(30,157,219);fill-opacity:0.68;"/>
    <path d="M127.727,43.388C124.735,43.388 122.327,45.408 122.327,47.916L122.327,56.027C122.327,58.536 124.735,60.555 127.727,60.555L128,60.555L128,43.388L127.727,43.388Z" style="fill:rgb(30,157,219);fill-opacity:0.68;fill-rule:nonzero;"/>
    <path d="M84.324,48.788C84.324,45.808 81.904,43.388 78.924,43.388L72.7,43.388C69.72,43.388 67.3,45.808 67.3,48.788L67.3,55.155C67.3,58.135 69.72,60.555 72.7,60.555L78.924,60.555C81.904,60.555 84.324,58.135 84.324,55.155L84.324,48.788Z" style="fill:rgb(30,157,219);fill-opacity:0.68;"/>
</svg>
